src/components/Icon/utils/svgsOptimized/heading-1.svg

<svg width="24" height="24" viewBox="0 0 24 24"  xmlns="http://www.w3.org/2000/svg">
<path d="M11.82 5.995H12.62C12.81 5.995 12.97 6.15499 12.97 6.345V17.645C12.97 17.835 12.81 17.995 12.62 17.995H11.82C11.63 17.995 11.47 17.835 11.47 17.645V12.595H7.27002V17.645C7.27002 17.835 7.11002 17.995 6.92002 17.995H6.12002C5.93002 17.995 5.77002 17.835 5.77002 17.645V6.345C5.77002 6.15499 5.93002 5.995 6.12002 5.995H6.92002C7.11002 5.995 7.27002 6.15499 7.27002 6.345V11.395H11.47V6.345C11.47 6.15499 11.63 5.995 11.82 5.995Z" />
<path d="M17.1856 9.21202C17.2349 9.18672 17.2802 9.16355 17.34 9.15499L17.35 9.16499C17.82 9.08499 18.23 9.45499 18.23 9.90499V17.655C18.23 17.845 18.07 18.005 17.88 18.005H17.08C16.89 18.005 16.73 17.845 16.73 17.655V10.845L15.43 11.575C15.25 11.675 15.03 11.605 14.94 11.425L14.72 10.975C14.64 10.805 14.7 10.605 14.86 10.515L17.16 9.22499C17.1687 9.22065 17.1772 9.2163 17.1856 9.21202Z" />
</svg>

<?xml version="1.0" encoding="utf-8"?><svg width="24" height="24" xmlns="http://www.w3.org/2000/svg" viewBox="0 0 24 24"><path d="M11.82 5.995h.8c.19 0 .35.16.35.35v11.3c0 .19-.16.35-.35.35h-.8c-.19 0-.35-.16-.35-.35v-5.05h-4.2v5.05c0 .19-.16.35-.35.35h-.8c-.19 0-.35-.16-.35-.35v-11.3c0-.19.16-.35.35-.35h.8c.19 0 .35.16.35.35v5.05h4.2v-5.05c0-.19.16-.35.35-.35Zm5.366 3.217a.47.47 0 0 1 .154-.057l.01.01c.47-.08.88.29.88.74v7.75c0 .19-.16.35-.35.35h-.8c-.19 0-.35-.16-.35-.35v-6.81l-1.3.73c-.18.1-.4.03-.49-.15l-.22-.45a.352.352 0 0 1 .14-.46l2.3-1.29.026-.013Z"/></svg>
